img/actor.svg

<svg width="124" height="124" viewBox="0 0 124 124" fill="none" xmlns="http://www.w3.org/2000/svg">
<rect width="124" height="124" fill="white"/>
<path d="M39.0059 63.0098C35.7733 63.9615 33.1661 65.0666 32.0316 65.9666C31.6922 66.2358 31.2871 66.3663 30.885 66.3663C30.3406 66.3663 29.8014 66.1268 29.4367 65.6671C28.8028 64.8678 28.9368 63.706 29.736 63.072C31.8024 61.4333 35.7772 60.1092 37.9625 59.466C38.941 59.1772 39.9678 59.7375 40.2559 60.7162C40.5441 61.6949 39.9844 62.7217 39.0059 63.0098ZM64.0188 75.1729C64.967 80.0419 64.0457 84.4863 61.3548 88.0259C58.9834 91.1449 55.4136 93.3037 51.3029 94.1041C50.1647 94.3257 49.0251 94.4353 47.9017 94.4353C44.9682 94.4353 42.1407 93.6887 39.7051 92.2416C35.8827 89.9706 33.3613 86.1963 32.4132 81.3272L32.3947 81.2318C32.2315 80.3842 32.6771 79.5366 33.4678 79.1906C34.816 78.6002 36.3494 78.0237 38.0251 77.4772C38.5542 77.3046 39.1329 77.3799 39.6006 77.682C45.9662 81.7976 51.6329 80.6939 55.9889 74.4909C56.3088 74.0353 56.817 73.7484 57.3723 73.7096C59.1299 73.5875 60.7678 73.5466 62.2403 73.5879C63.1041 73.6121 63.8358 74.2321 64.0014 75.0803L64.0192 75.1716L64.0188 75.1729ZM60.6022 77.2695C59.9252 77.2775 59.2165 77.3017 58.4801 77.3421C55.2098 81.6507 51.203 83.8423 46.8448 83.8427C44.1224 83.8429 41.264 82.9883 38.3604 81.2601C37.6629 81.499 36.9967 81.7426 36.3665 81.9891C38.4663 89.3032 45.0636 91.5554 50.5967 90.4783C56.1305 89.4009 61.3991 84.8387 60.6022 77.2695ZM51.0339 60.6676C54.3877 60.3368 57.2194 60.3831 58.608 60.7913C58.782 60.8426 58.9573 60.8669 59.1299 60.8669C59.9282 60.8669 60.6644 60.3452 60.901 59.5407C61.1887 58.5619 60.6289 57.5354 59.6501 57.2473C57.2473 56.5407 53.4408 56.718 50.6708 56.9915C49.6556 57.0915 48.9139 57.9959 49.014 59.011C49.1144 60.0262 50.0202 60.7679 51.0339 60.6676ZM72.7728 37.1017C72.8319 37.1072 72.8904 37.1101 72.9483 37.1101C73.8901 37.1101 74.6948 36.3928 74.7851 35.4363C74.8807 34.4206 74.1351 33.5197 73.1194 33.424C69.7644 33.1078 66.9938 32.5212 65.7085 31.8548C64.8024 31.3851 63.6878 31.7389 63.2186 32.6448C62.7491 33.5502 63.1027 34.665 64.0084 35.1346C66.3496 36.3481 70.5046 36.8881 72.7728 37.1017ZM85.5443 37.1101C85.6024 37.1101 85.6609 37.1072 85.7198 37.1017C88.4914 36.8406 92.2618 36.2871 94.4849 35.1342C95.3905 34.6646 95.7437 33.5496 95.2742 32.6442C94.8044 31.7389 93.6898 31.3857 92.7841 31.8548C91.4996 32.521 88.7293 33.1076 85.3732 33.424C84.3577 33.5197 83.6119 34.4204 83.7075 35.4363C83.7976 36.3928 84.6023 37.1101 85.5443 37.1101ZM75.4964 73.145C78.0104 86.0563 68.8638 99.4938 53.7478 105.096C53.5596 105.166 53.3614 105.204 53.1608 105.21C52.7526 105.222 52.3434 105.229 51.9387 105.229C36.3662 105.229 23.463 96.3388 21.0128 83.7545L16.061 58.3255C15.5687 55.7975 18.0456 53.4709 23.8562 51.003C28.5758 48.9985 34.983 47.1531 41.898 45.8068C48.8129 44.4603 55.444 43.7634 60.5712 43.8537C66.883 43.9606 70.0521 45.1881 70.5444 47.7159L75.4964 73.145ZM71.8704 73.851L66.9524 48.5957C66.49 48.2423 64.4642 47.517 59.3639 47.5414C54.6574 47.5728 48.7051 48.2445 42.6041 49.4326C36.5031 50.6207 30.7338 52.2315 26.3593 53.9683C21.6208 55.8499 20.017 57.2914 19.7208 57.793L24.6387 83.0485C26.7897 94.0965 38.5882 101.831 52.7479 101.526C65.9902 96.4962 74.0216 84.8992 71.8704 73.851ZM97.9489 20.6521C92.9336 19.5867 86.2916 19 79.2467 19C72.2017 19 65.5597 19.5865 60.5443 20.6521C54.3692 21.9637 51.4932 23.7742 51.4932 26.3498V37.6804C51.4932 38.7006 52.32 39.5275 53.3402 39.5275C54.3604 39.5275 55.1873 38.7006 55.1873 37.6804V26.5267C55.5735 26.091 57.4232 24.9826 62.4343 24.0414C67.0599 23.1727 73.0308 22.6943 79.2467 22.6943C85.4627 22.6943 91.4333 23.1727 96.0592 24.0414C101.07 24.9826 102.92 26.091 103.306 26.5267V52.2559C103.306 62.6279 94.8721 71.8079 82.319 75.0994C81.3322 75.3582 80.742 76.3679 81.0008 77.3544C81.2183 78.1842 81.9668 78.7336 82.7863 78.7336C82.9412 78.7336 83.0988 78.7139 83.256 78.6728C90.0331 76.8957 95.8862 73.498 100.182 68.8469C104.643 64.0181 107 58.2812 107 52.2559V26.3498C107 23.7742 104.124 21.9637 97.9489 20.6521ZM87.8868 63.6196C87.9621 63.6196 88.0378 63.6151 88.1134 63.6056C89.8625 63.3893 91.4779 63.1166 92.9145 62.7948C93.758 62.6057 94.3576 61.8569 94.3576 60.9925V60.8995C94.3576 56.052 92.67 51.9284 89.4775 48.9747C86.2074 45.9491 81.6103 44.4246 76.8687 44.7951C75.8516 44.8743 75.0915 45.7629 75.1707 46.7798C75.2499 47.7969 76.1373 48.5598 77.1554 48.4779C80.8766 48.1879 84.4521 49.3577 86.969 51.6864C89.0812 53.6404 90.3233 56.32 90.6032 59.4945C89.9376 59.6162 89.2376 59.7278 88.5074 59.8288C85.5663 57.1988 82.4577 55.737 79.2562 55.4815C78.2403 55.4014 77.3492 56.1591 77.2679 57.1758C77.1869 58.1927 77.9454 59.0828 78.9623 59.1641C81.5311 59.3691 84.1028 60.6945 86.6064 63.1036C86.9524 63.4367 87.4123 63.6196 87.8868 63.6196Z" fill="#3E3E3E"/>
</svg>

<?xml version="1.0"?>
<svg width="124" height="124" xmlns="http://www.w3.org/2000/svg" xmlns:svg="http://www.w3.org/2000/svg">
 <g class="layer">
  <title>Layer 1</title>
  <rect fill="#000000" height="124" id="svg_1" transform="matrix(1 0 0 1 0 0)" width="124"/>
  <path d="m39.01,63.01c-3.24,0.95 -5.84,2.06 -6.98,2.96c-0.34,0.27 -0.74,0.4 -1.14,0.4c-0.55,0 -1.09,-0.24 -1.45,-0.7c-0.64,-0.8 -0.5,-1.96 0.3,-2.6c2.06,-1.64 6.04,-2.96 8.22,-3.6c0.98,-0.29 2.01,0.27 2.3,1.25c0.28,0.97 -0.28,2 -1.25,2.29zm25.01,12.16c0.95,4.87 0.03,9.32 -2.67,12.86c-2.37,3.11 -5.94,5.27 -10.05,6.07c-1.14,0.23 -2.27,0.34 -3.4,0.34c-2.93,0 -5.76,-0.75 -8.19,-2.2c-3.83,-2.27 -6.35,-6.04 -7.3,-10.91l-0.02,-0.1c-0.16,-0.85 0.29,-1.69 1.08,-2.04c1.35,-0.59 2.88,-1.17 4.56,-1.71c0.52,-0.18 1.1,-0.1 1.57,0.2c6.37,4.12 12.03,3.01 16.39,-3.19c0.32,-0.45 0.83,-0.74 1.38,-0.78c1.76,-0.12 3.4,-0.16 4.87,-0.12c0.86,0.02 1.6,0.64 1.76,1.49l0.02,0.09l0,0zm-3.42,2.1c-0.67,0.01 -1.38,0.03 -2.12,0.07c-3.27,4.31 -7.28,6.5 -11.64,6.5c-2.72,0 -5.58,-0.85 -8.48,-2.58c-0.7,0.24 -1.36,0.48 -1.99,0.73c2.1,7.31 8.69,9.57 14.23,8.49c5.53,-1.08 10.8,-5.64 10,-13.21zm-9.57,-16.6c3.36,-0.33 6.19,-0.29 7.58,0.12c0.17,0.05 0.35,0.08 0.52,0.08c0.8,0 1.53,-0.52 1.77,-1.33c0.29,-0.98 -0.27,-2 -1.25,-2.29c-2.4,-0.71 -6.21,-0.53 -8.98,-0.26c-1.01,0.1 -1.76,1.01 -1.66,2.02c0.1,1.02 1.01,1.76 2.02,1.66zm21.74,-23.57c0.06,0.01 0.12,0.01 0.18,0.01c0.94,0 1.74,-0.72 1.84,-1.67c0.09,-1.02 -0.65,-1.92 -1.67,-2.02c-3.36,-0.31 -6.13,-0.9 -7.41,-1.57c-0.91,-0.46 -2.02,-0.11 -2.49,0.79c-0.47,0.91 -0.12,2.02 0.79,2.49c2.34,1.22 6.49,1.76 8.76,1.97zm12.77,0.01c0.06,0 0.12,0 0.18,-0.01c2.77,-0.26 6.54,-0.81 8.76,-1.97c0.91,-0.47 1.26,-1.58 0.79,-2.49c-0.47,-0.9 -1.58,-1.25 -2.49,-0.79c-1.28,0.67 -4.05,1.26 -7.41,1.57c-1.01,0.1 -1.76,1 -1.66,2.02c0.09,0.95 0.89,1.67 1.83,1.67zm-10.04,36.03c2.51,12.92 -6.64,26.35 -21.75,31.96c-0.19,0.07 -0.39,0.1 -0.59,0.11c-0.41,0.01 -0.82,0.02 -1.22,0.02c-15.57,0 -28.48,-8.89 -30.93,-21.48l-4.95,-25.42c-0.49,-2.53 1.99,-4.86 7.8,-7.33c4.72,-2 11.12,-3.85 18.04,-5.19c6.91,-1.35 13.54,-2.05 18.67,-1.96c6.31,0.11 9.48,1.34 9.97,3.87l4.96,25.42zm-3.63,0.71l-4.92,-25.25c-0.46,-0.36 -2.49,-1.08 -7.59,-1.06c-4.7,0.03 -10.65,0.7 -16.76,1.89c-6.1,1.19 -11.87,2.8 -16.24,4.54c-4.74,1.88 -6.34,3.32 -6.64,3.82l4.92,25.26c2.15,11.05 13.95,18.78 28.11,18.48c13.24,-5.03 21.27,-16.63 19.12,-27.68zm26.08,-53.2c-5.02,-1.06 -11.66,-1.65 -18.7,-1.65c-7.05,0 -13.69,0.59 -18.71,1.65c-6.17,1.31 -9.05,3.12 -9.05,5.7l0,11.33c0,1.02 0.83,1.85 1.85,1.85c1.02,0 1.85,-0.83 1.85,-1.85l0,-11.15c0.38,-0.44 2.23,-1.55 7.24,-2.49c4.63,-0.87 10.6,-1.35 16.82,-1.35c6.21,0 12.18,0.48 16.81,1.35c5.01,0.94 6.86,2.05 7.25,2.49l0,25.73c0,10.37 -8.44,19.55 -20.99,22.84c-0.99,0.26 -1.58,1.27 -1.32,2.25c0.22,0.83 0.97,1.38 1.79,1.38c0.15,0 0.31,-0.02 0.47,-0.06c6.77,-1.77 12.63,-5.17 16.92,-9.82c4.46,-4.83 6.82,-10.57 6.82,-16.59l0,-25.91c0,-2.58 -2.88,-4.39 -9.05,-5.7zm-10.06,42.97c0.07,0 0.15,0 0.22,-0.01c1.75,-0.22 3.37,-0.49 4.8,-0.82c0.85,-0.18 1.45,-0.93 1.45,-1.8l0,-0.09c0,-4.85 -1.69,-8.97 -4.88,-11.93c-3.27,-3.02 -7.87,-4.55 -12.61,-4.17c-1.02,0.07 -1.78,0.96 -1.7,1.98c0.08,1.02 0.97,1.78 1.99,1.7c3.72,-0.29 7.29,0.88 9.81,3.21c2.11,1.95 3.35,4.63 3.63,7.8c-0.66,0.13 -1.36,0.24 -2.09,0.34c-2.94,-2.63 -6.05,-4.09 -9.25,-4.35c-1.02,-0.08 -1.91,0.68 -1.99,1.7c-0.08,1.01 0.68,1.9 1.69,1.98c2.57,0.21 5.14,1.53 7.65,3.94c0.34,0.34 0.8,0.52 1.28,0.52z" fill="#3f3f3f" id="svg_2"/>
 </g>
</svg>
